public/avatar/shoe/187.svg

<svg xmlns:xlink="http://www.w3.org/1999/xlink" height="38.3" width="36.05" xmlns="http://www.w3.org/2000/svg"><use height="18.65" transform="translate(7.75 10.3)" width="25.1" xlink:href="#a"/><defs><g id="a" fill-rule="evenodd"><path d="m5.85-2.75-2-.65q-4.3-1.15-8.75.05l-.15.05-1.1.55-1.5.15-.9 1.8-3.65 2.9 3.7.9q.45.2.95.45 2.15.95 3.15 2.9l.1.4-.3-.15-1.1-.9q-1.5-1.2-3.4-1.9l-.35-.1q-2.05-.85-4.05-.5l-1.35 1.5q-.95 1.45-.4 3l.35 1.1 1.25.9q4.3 1.5 9 1.15l2.6-.35q3.05-.6 5.1-3l.65-.75q1.95-.6 3.45-1.95l.35-.65.2-1.4q.45-1.9 0-3.95-.15-.8-.95-1.35l-.9-.2M1.3-4.5l2.5.55 2.45.7q1.55.45 1.75 2l.3 3.8.5 1 .25 1.7q.1 2.45-2.2 3.4-.75.25-1.45.6Q3.35 10.3 1.6 12q-1.65 1.6-3.95 2.1l-6.8-.2-5.35-.9-.65-.6q-.95-1.15-.9-2.8V7.5q-.1-2.7 1.75-4.25l2.15-1.8 2.05-1.7q.85-.7 1.3-1.6l.95-1.25 1.15-.2 1.7-.5q3-.9 6.3-.7m-2.45 17.4q3.6-1.15 6.25-4.2 1.6-.1 2.7-1.2 1.2-1.1.6-2.95-.5.6-1.15 1L5.3 7.05l-4.9 3.4q-1.55.9-3.45 1.15l-9.25-.55q-1.65.1-2.75-1.1l-.4-1.1q-.35 1.2.15 2.2l.75.85.1.25.95.15q3.85 1.3 8.05 1.3l2.1-.2.25-.05 1.95-.45" transform="translate(16.05 4.55)"/><path d="M5.15-2.25Q4.15-3 2.85-3l-.65-.05q-2.7.95-5.25-.1l-1.85-.2q4.45-1.2 8.75-.05l2 .65-.7.5" fill="#8c023a" transform="translate(16.05 4.55)"/><path d="m-4.9-3.35 1.85.2q2.55 1.05 5.25.1l.65.05q1.3 0 2.3.75l-.8.75-5.4.45-3-1.3-.45-.1-1.65-.3 1.1-.55.15-.05" fill="#5b0333" transform="translate(16.05 4.55)"/><path d="m.45-.5 1.1.5-.05.25Q.85 2.2-.7 3.7l-.45-.05.35-4.1L.45-.5m-15 12.4-.75-.85q-.5-1-.15-2.2l.4 1.1q1.1 1.2 2.75 1.1l9.25.55q1.9-.25 3.45-1.15l4.9-3.4 1.95-1.5q.65-.4 1.15-1Q9 6.4 7.8 7.5 6.7 8.6 5.1 8.7q-2.65 3.05-6.25 4.2L.7 11.5l-2.85.7q-2.05.75-4.25.7l-2.75.25 5.8.25-2.1.2q-4.2 0-8.05-1.3l1.45.2-.5-.15q-1.2-.4-2.25-1.2l.25.75" fill="#bcbcbc" transform="translate(16.05 4.55)"/><path d="M3.85-.95V-1l.05-.15L.45-.5-.8-.45l-.35 4.1.2.6h.25l4.55-5.2m-4.9-.1 5.4-.45-.1.4L4 .4l-.45.75Q2.55 2.65 1 3.6L-1.9 5V3.45l.05-.5.8-4" fill="#020200" transform="translate(16.05 4.55)"/><path d="m-6.15-2.75 1.65.3-1.6 2.2-2.45-.55.9-1.8 1.5-.15M4.35-1.5l.8-.75-.9 1.15.1-.4M4 .4l3.7 2.35-.2 1.4-.35.65Q5.65 6.15 3.7 6.75L3.05 5.7Q2.1 4.5 1 3.6q1.55-.95 2.55-2.45L4 .4m-6.05 10.1-2.6.35q-4.7.35-9-1.15l.5.1 1.9-3.1 4.3 3.2-.7.85h2.1l-1.4-.85 2.35-3.3.3.15 2.25 3.75m-12.8-5.8 1.35-1.5q2-.35 4.05.5l.35.1-2.15 2.9-3.6-2M-4.4 6.35q-1-1.95-3.15-2.9-.5-.25-.95-.45l2.4-3.15 4.25 3.1-.05.5-2.5 2.9" fill="#f9f9f9" transform="translate(16.05 4.55)"/><path d="m5.15-2.25.7-.5.9.2q.8.55.95 1.35.45 2.05 0 3.95L4 .4l.25-1.5.9-1.15m-9.65-.2.45.1 3 1.3-.8 4-4.25-3.1L-8.5 3l-3.7-.9 3.65-2.9 2.45.55 1.6-2.2m8.2 9.2-.65.75q-2.05 2.4-5.1 3L-4.3 6.75l-.1-.4 2.5-2.9V5L1 3.6q1.1.9 2.05 2.1l.65 1.05M-13.65 9.7l-1.25-.9-.35-1.1q-.55-1.55.4-3l3.6 2 2.15-2.9q1.9.7 3.4 1.9l1.1.9-2.35 3.3 1.4.85h-2.1l.7-.85-4.3-3.2-1.9 3.1-.5-.1" fill="#424242" transform="translate(16.05 4.55)"/><path d="m.45-.5 3.45-.65-.05.15v.05L-.7 4.25h-.25l-.2-.6.45.05Q.85 2.2 1.5.25L1.55 0 .45-.5" fill="#777" transform="translate(16.05 4.55)"/><path d="m-1.15 12.9-1.95.45-.25.05-5.8-.25 2.75-.25q2.2.05 4.25-.7l2.85-.7-1.85 1.4m-12.35-.6-.95-.15-.1-.25-.25-.75q1.05.8 2.25 1.2l.5.15-1.45-.2" fill="#e5e5e5" transform="translate(16.05 4.55)"/></g></defs></svg>

<?xml version="1.0" encoding="UTF-8" standalone="no"?>
<svg xmlns:xlink="http://www.w3.org/1999/xlink" height="38.3px" width="36.05px" xmlns="http://www.w3.org/2000/svg">
  <g transform="matrix(1.0, 0.0, 0.0, 1.0, 23.8, 14.85)">
    <use height="18.65" transform="matrix(1.0, 0.0, 0.0, 1.0, -16.05, -4.55)" width="25.1" xlink:href="#shape0"/>
  </g>
  <defs>
    <g id="shape0" transform="matrix(1.0, 0.0, 0.0, 1.0, 16.05, 4.55)">
      <path d="M5.85 -2.75 L3.85 -3.4 Q-0.45 -4.55 -4.9 -3.35 L-5.05 -3.3 -6.15 -2.75 -7.65 -2.6 -8.55 -0.8 -12.2 2.1 -8.5 3.0 Q-8.05 3.2 -7.55 3.45 -5.4 4.4 -4.4 6.35 L-4.3 6.75 -4.6 6.6 -5.7 5.7 Q-7.2 4.5 -9.1 3.8 L-9.45 3.7 Q-11.5 2.85 -13.5 3.2 L-14.85 4.7 Q-15.8 6.15 -15.25 7.7 L-14.9 8.8 -13.65 9.7 Q-9.35 11.2 -4.65 10.85 L-2.05 10.5 Q1.0 9.9 3.05 7.5 L3.7 6.75 Q5.65 6.15 7.15 4.8 L7.5 4.15 7.7 2.75 Q8.15 0.85 7.7 -1.2 7.55 -2.0 6.75 -2.55 L5.85 -2.75 M1.3 -4.5 L3.8 -3.95 6.25 -3.25 Q7.8 -2.8 8.0 -1.25 L8.3 2.55 8.8 3.55 9.05 5.25 Q9.15 7.7 6.85 8.65 6.1 8.9 5.4 9.25 3.35 10.3 1.6 12.0 -0.05 13.6 -2.35 14.1 L-9.15 13.9 -14.5 13.0 -15.15 12.4 Q-16.1 11.25 -16.05 9.6 L-16.05 7.5 Q-16.15 4.8 -14.3 3.25 L-12.15 1.45 -10.1 -0.25 Q-9.25 -0.95 -8.8 -1.85 L-7.85 -3.1 -6.7 -3.3 -5.0 -3.8 Q-2.0 -4.7 1.3 -4.5 M-1.15 12.9 Q2.45 11.75 5.1 8.7 6.7 8.6 7.8 7.5 9.0 6.4 8.4 4.55 7.9 5.15 7.25 5.55 L5.3 7.05 0.4 10.45 Q-1.15 11.35 -3.05 11.6 L-12.3 11.05 Q-13.95 11.15 -15.05 9.95 L-15.45 8.85 Q-15.8 10.05 -15.3 11.05 L-14.55 11.9 -14.45 12.15 -13.5 12.3 Q-9.65 13.6 -5.45 13.6 L-3.35 13.4 -3.1 13.35 -1.15 12.9" fill="#000000" fill-rule="evenodd" stroke="none"/>
      <path d="M5.15 -2.25 Q4.15 -3.0 2.85 -3.0 L2.2 -3.05 Q-0.5 -2.1 -3.05 -3.15 L-4.9 -3.35 Q-0.45 -4.55 3.85 -3.4 L5.85 -2.75 5.15 -2.25" fill="#8c023a" fill-rule="evenodd" stroke="none"/>
      <path d="M-4.9 -3.35 L-3.05 -3.15 Q-0.5 -2.1 2.2 -3.05 L2.85 -3.0 Q4.15 -3.0 5.15 -2.25 L4.35 -1.5 -1.05 -1.05 -4.05 -2.35 -4.5 -2.45 -6.15 -2.75 -5.05 -3.3 -4.9 -3.35" fill="#5b0333" fill-rule="evenodd" stroke="none"/>
      <path d="M0.45 -0.5 L1.55 0.0 1.5 0.25 Q0.85 2.2 -0.7 3.7 L-1.15 3.65 -0.8 -0.45 0.45 -0.5 M-14.55 11.9 L-15.3 11.05 Q-15.8 10.05 -15.45 8.85 L-15.05 9.95 Q-13.95 11.15 -12.3 11.05 L-3.05 11.6 Q-1.15 11.35 0.4 10.45 L5.3 7.05 7.25 5.55 Q7.9 5.15 8.4 4.55 9.0 6.4 7.8 7.5 6.7 8.6 5.1 8.7 2.45 11.75 -1.15 12.9 L0.7 11.5 -2.15 12.2 Q-4.2 12.95 -6.4 12.9 L-9.15 13.15 -3.35 13.4 -5.45 13.6 Q-9.65 13.6 -13.5 12.3 L-12.05 12.5 -12.55 12.35 Q-13.75 11.95 -14.8 11.15 L-14.55 11.9" fill="#bcbcbc" fill-rule="evenodd" stroke="none"/>
      <path d="M3.85 -0.95 L3.85 -1.0 3.9 -1.15 0.45 -0.5 -0.8 -0.45 -1.15 3.65 -0.95 4.25 -0.7 4.25 3.85 -0.95 M-1.05 -1.05 L4.35 -1.5 4.25 -1.1 4.0 0.4 3.55 1.15 Q2.55 2.65 1.0 3.6 L-1.9 5.0 -1.9 3.45 -1.85 2.95 -1.05 -1.05" fill="#020200" fill-rule="evenodd" stroke="none"/>
      <path d="M-6.15 -2.75 L-4.5 -2.45 -6.1 -0.25 -8.55 -0.8 -7.65 -2.6 -6.15 -2.75 M4.35 -1.5 L5.15 -2.25 4.25 -1.1 4.35 -1.5 M4.0 0.4 L7.7 2.75 7.5 4.15 7.15 4.8 Q5.65 6.15 3.7 6.75 L3.05 5.7 Q2.1 4.5 1.0 3.6 2.55 2.65 3.55 1.15 L4.0 0.4 M-2.05 10.5 L-4.65 10.85 Q-9.35 11.2 -13.65 9.7 L-13.15 9.8 -11.25 6.7 -6.95 9.9 -7.65 10.75 -5.55 10.75 -6.95 9.9 -4.6 6.6 -4.3 6.75 -2.05 10.5 M-14.85 4.7 L-13.5 3.2 Q-11.5 2.85 -9.45 3.7 L-9.1 3.8 -11.25 6.7 -14.85 4.7 M-4.4 6.35 Q-5.4 4.4 -7.55 3.45 -8.05 3.2 -8.5 3.0 L-6.1 -0.15 -1.85 2.95 -1.9 3.45 -4.4 6.35" fill="#f9f9f9" fill-rule="evenodd" stroke="none"/>
      <path d="M5.15 -2.25 L5.85 -2.75 6.75 -2.55 Q7.55 -2.0 7.7 -1.2 8.15 0.85 7.7 2.75 L4.0 0.4 4.25 -1.1 5.15 -2.25 M-4.5 -2.45 L-4.05 -2.35 -1.05 -1.05 -1.85 2.95 -6.1 -0.15 -8.5 3.0 -12.2 2.1 -8.55 -0.8 -6.1 -0.25 -4.5 -2.45 M3.7 6.75 L3.05 7.5 Q1.0 9.9 -2.05 10.5 L-4.3 6.75 -4.4 6.35 -1.9 3.45 -1.9 5.0 1.0 3.6 Q2.1 4.5 3.05 5.7 L3.7 6.75 M-13.65 9.7 L-14.9 8.8 -15.25 7.7 Q-15.8 6.15 -14.85 4.7 L-11.25 6.7 -9.1 3.8 Q-7.2 4.5 -5.7 5.7 L-4.6 6.6 -6.95 9.9 -5.55 10.75 -7.65 10.75 -6.95 9.9 -11.25 6.7 -13.15 9.8 -13.65 9.7" fill="#424242" fill-rule="evenodd" stroke="none"/>
      <path d="M0.45 -0.5 L3.9 -1.15 3.85 -1.0 3.85 -0.95 -0.7 4.25 -0.95 4.25 -1.15 3.65 -0.7 3.7 Q0.85 2.2 1.5 0.25 L1.55 0.0 0.45 -0.5" fill="#777777" fill-rule="evenodd" stroke="none"/>
      <path d="M-1.15 12.9 L-3.1 13.35 -3.35 13.4 -9.15 13.15 -6.4 12.9 Q-4.2 12.95 -2.15 12.2 L0.7 11.5 -1.15 12.9 M-13.5 12.3 L-14.45 12.15 -14.55 11.9 -14.8 11.15 Q-13.75 11.95 -12.55 12.35 L-12.05 12.5 -13.5 12.3" fill="#e5e5e5" fill-rule="evenodd" stroke="none"/>
    </g>
  </defs>
</svg>
